X:1
T:Caprice 19
T:Caprice XVIIII
T:Paganini, N.
C:Paganini, N.
L:1/8
Q:1/4=60
M:4/4
K:Eb
V:1 treble nm="Violin" snm="Vln."
V:1
!p!"^Lento." [bb']4 [gg']2 [ee']2 |{[bb']} [Bb]4 z4 |!pp! [Bb]4 [Gg]2 [Ee]2 |{[Bb]} [B,B]4 z4 |: %4
[Q:1/4=135] !fermata!z"^Allegro assai."!p! (.b.b.b{/c'} .b.=a.b)!f!(.[B,G] | %5
 .[G,E])!p!(.b.b.b{/c'} .b.=a.b)!f!(.[B,G] | .[A,F])!p!(.b.b.b{/c'} .b.=a.b)!f!(.[B,F] | %7
 .[A,D])!p!(.b.b.b{/c'} .b.=a.b)!f!(.[B,F] | .[G,E])!p!(.e'.e'.e'{/f'} .e'.d'.e')!f!(.[B,G] | %9
 .[CA])!p!(.e'.e'.e'{/f'} .e'.d'.e')!f!(.[CA] | .[B,G])!p!(.e'.e'.e'{/f'} .e'.d'.e')!f!(.[B,G] | %11
 .[=A,_G])!p!(.e'.e'.e'{/f'} .e'.d'.e')!f!u[A,G] | %12
{!fermata![B,F]} !fermata!d'2{d'} c'>b({=ab)c'} b2 !fermata!z2 | %13
 !fermata!z!p! (.b.b.b{/c'} .b.=a.b)!f!(.[GB] | .[FA])!p!(.b.b.b{/c'} .b.=a.b)!f!(.[FA] | %15
 .[EG])!p!(.B.B.B{/c} .B.=A.B)!f!(.[B,G] | .[A,F])!p!(.B.B.B{/c} .B.=A.B)!f!(.[A,F] | %17
 .[G,E])(.e'.e'.e'{/f'} .e'.d'.e')!f!(.[B,G] | %18
 .[CA])!p!(.e'{/f'}.e')!f!(.[CA] .[B,G])!p!(.e'{/f'}.e')!f!(.[B,G] | %19
 .[=A,_G])!p!(.e'{/f'}.e')!f!(.[A,G] .[_A,F])!p!(.e'{/f'}.e')!f!(.[A,F] | %20
 .[G,E])e' [A,F]c' [B,G]b [B,F]d | [G,E]!p!(.b.b.b{/c'} .b.=a.b)!f!(.[B,F] | %22
 .[G,E])(.e'.e'.e'{/f'} .e'.d'.e')[B,F] | [G,E]"^segue"(.g'.g'.g'{/a'} .g'.f'.g')[B,F] | %24
 [G,E]!8va(!(.b'.b'.b'{/c''} .b'.=a'.b')!8va)![B,F] | [G,E]ggg{/a} gfed |: %26
"^Forte la prima volate e Piano in seconda" ((C/G,/)).E/.D/ (C/D/).E/.C/ (D/G,/).F/.E/ (D/E/).F/.D/ | %27
 (E/D/).C/.G/ (E/D/).C/.c/ ((E/D/)).C/.e/ (E/D/).C/.g/ | %28
 ((=B,/G,/)).D/.C/ .B,/.F/.E/.D/ (E/D/).C/.B,/ .C/.D/.E/.^F/ | %29
 G/G,/=A,/=B,/ C/D/=E/^F/ G/=A/=B/c/ d/=e/^f/g/ | (C/G,/).E/.D/ C/D/E/C/ (D/G,/).F/.E/ D/E/F/D/ | %31
 (E/D/C/).G/ (E/D/C/).c/ (E/D/C/).e/ (E/D/C/).g/ | %32
 (G,/A,/G,/).C/ (G,/A,/G,/).E/ (G,/A,/G,/).G/ (.vG/.F/.E/.D/ | !tenuto!C)D/E/ F/G/=A/=B/ c2 z2 :: %34
 (B,/C/B,/).D/ (B,/C/B,/).F/ (B,/C/B,/).G/ (B,/C/B,/).=A/ | %35
 (B/B,/).C/.D/ .E/.F/.G/.=A/ .B/.c/.d/.e/ .f/.g/.=a/.b/ | %36
 (B,/C/B,/).D/ (B,/C/B,/).F/ (B,/C/B,/).G/ (B,/C/B,/).=A/ | %37
 (B,/B/).=A/.G/ .F/.E/.D/.C/ (B,/_A/).G/.F/ .E/.D/.C/.=B,/ | %38
 (C/G,/).E/.D/ .C/.D/.E/.C/ (D/G,/).F/.E/ .D/.E/.F/.D/ | %39
 (E/D/C/).G/ (E/D/C/).c/ (E/D/C/).e/ (E/D/C/).g/ | %40
 (G,/A,/G,/).C/ (G,/A,/G,/).E/ (G,/A,/G,/).G/ (.G/.F/.E/.D/ |1 !tenuto!C)D/E/ F/G/=A/=B/ c2 z2 :|2 %42
 C!p!(.c'.c'.c'{/d'} .c'.=b._b)!f!(.[B,G] ||"^Segue" .[G,E])!p!(.b.b.b{/c'} .b.=a.b)!f!(.[B,G] | %44
 .[A,F])!p!(.b.b.b{/c'} .b.=a.b)!f!((.[B,G] | .[A,D]))!p!(.b.b.b{/c'} .b.=a.b)!f!(.[B,F] | %46
 .[G,E])!p!(.e'.e'.e'{/f'} .e'.d'.e')!f!(.[B,G] | .[CA])!p!(.e'.e'.e'{/f'} .e'.d'.e')!f!(.[CA] | %48
 .[B,G])!p!(.e'.e'.e'{/f'} .e'.d'.e')!f!(.[B,G] | .[=A,_G])!p!(.e'.e'.e'{/f'} .e'.d'.e')!f!u[A,G] | %50
{!fermata![B,F]} !fermata!d'2{d'} c'>b{!fermata!=a!fermata!b!fermata!c'} !fermata!b2 !fermata!z2 | %51
 !fermata!z!p! (.b.b.b{/c'} .b.=a.b)!f!(.[GB] | .[FA])!p!(.b.b.b{/c'} .b.=a.b)!f!(.[FA] | %53
 .[EG])!p!(.B.B.B{/c} .B.=A.B)!f!(.[B,G] | .[A,F])!p!(.B.B.B{/c} .B.=A.B)!f!(.[A,F] | %55
 .[G,E])!p!(.e'.e'.e'{/f'} .e'.d'.e')!f!(.[B,G] | %56
 .[CA])!p!(.e'{/f'}.e')!f!(.[CA] .[B,G])!p!(.e'{/f'}.e')!f!(.[B,G] | %57
 .[=A,_G])!p!(.e'{/f'}.e')!f!(.[A,G] .[_A,F])!p!(.e'{/f'}.e')!f!(.[A,F] | %58
 .[G,E])e' [A,F]c' [B,G]b [B,F]d | [G,E](.b.b.b{/c'} .b.=a.b)(.[B,F] | %60
 .[G,E])(.e'.e'.e'{/f'} .e'.d'.e')[B,F] | [G,E]!8va(!(.g'.g'.g'{/a'} .g'.f'.g')!8va)!(.[B,F] | %62
 .[G,E])!8va(!(.b'.b'.b'{/c''} .b'.=a'.b')!8va)!(.[B,F] | %63
 .[G,E])!8va(!(.e''.e''.e''{/f''} .e''.d''{/f''}.e'')d'' | %64
 e''!8va)![B,F][EG][B,F] [EG]v[B,Fd]v[G,Ee]v[B,Fd] | v[G,Ee]4 !fermata!z4 |] %66

